svgs/sharp-regular/cedi-sign.svg

<svg xmlns="http://www.w3.org/2000/svg" viewBox="0 0 384 512"><!--! Font Awesome Pro 6.6.0 by @fontawesome - https://fontawesome.com License - https://fontawesome.com/license (Commercial License) Copyright 2024 Fonticons, Inc. --><path d="M240 0l0 24 0 48.5C277.9 75 313 88 341.9 108.4l-27.7 39.2c-20.9-14.8-46.3-24.5-74.1-27l0 270.8c27.8-2.5 53.2-12.2 74.1-27l27.7 39.2C313 424 277.9 437 240 439.5l0 .5 0 48 0 24-48 0 0-24 0-48 0-2.8C102 422 32 347.7 32 256s70-166 160-181.2L192 24l0-24 48 0zM80 256c0 63.2 47 117.9 112 132.3l0-264.6C127 138.1 80 192.8 80 256z"/></svg>

<svg xmlns="http://www.w3.org/2000/svg" viewBox="0 0 384 512"><!--! Font Awesome Pro 6.4.2 by @fontawesome - https://fontawesome.com License - https://fontawesome.com/license (Commercial License) Copyright 2023 Fonticons, Inc. --><path d="M240 0V24 72.5C277.9 75 313 88 341.9 108.4l-27.7 39.2c-20.9-14.8-46.3-24.5-74.1-27V391.4c27.8-2.5 53.2-12.2 74.1-27l27.7 39.2C313 424 277.9 437 240 439.5v.5 48 24H192V488 440v-2.8C102 422 32 347.7 32 256s70-166 160-181.2V24 0h48zM80 256c0 63.2 47 117.9 112 132.3V123.7C127 138.1 80 192.8 80 256z"/></svg>
